!!!COM: Music21
!!!OTL: Pasacalles
!!!OMV: pezas_pasacorredoiras_pasacalles-1_pasacalles-partitura.musicxml
**kern
*I"Bagpipes
*I'Bag
*clefG^2
*k[]
*M2/4
=1
!LO:TX:a:t=Allegretto
*MM120
!LO:TX:a:t=[quarter]=120
4r
16ccLL
16ee
16gg
16cccJJ
=||
8.bb-XL
16ggJk
8.aaL
16ffJk
=
16ffLL
16aa
16gg
16ffJJ
16eeLL
16gg
16ff
16ddJJ
=
16eeLL
16gg
16ee
16ccJJ
16aaLL
16bb-X
16aa
16bb-JJ
=
8.ggTL
16eeJk
16ccLL
16ee
16gg
16cccJJ
=
8.bb-XL
16ggJk
8.aaL
16ffJk
!!linebreak:original
=
16ffLL
16aa
16gg
16ffJJ
16eeLL
16gg
16ff
16ddJJ
=
16eeLL
16gg
16ee
16ccJJ
16eeLL
16ff
16dd
16bJJ
=
[4cc
16ccLL]
16ee
16gg
16cccJJ
=||
8.bb-XL
16ggJk
8.aaL
16ffJk
=
16ffLL
16aa
16gg
16ffJJ
16eeLL
16gg
16ff
16ddJJ
=
16eeLL
16gg
16ee
16ccJJ
16aaLL
16bb-X
16aa
16bb-JJ
!!linebreak:original
=
8.ggTL
16eeJk
16ccLL
16ee
16gg
16cccJJ
=
8.bb-XL
16ggJk
8.aaL
16ffJk
!!linebreak:original
=
16ffLL
16aa
16gg
16ffJJ
16eeLL
16gg
16ff
16ddJJ
=
16eeLL
16gg
16ee
16ccJJ
16eeLL
16ff
16dd
16bJJ
=
[4cc
8ccL]
16eeL
16ggJJ
=||
16ddLL
16b
16dd
16bJJ
16ddLL
16b
16dd
16ggJJ
=
16eeLL
16cc
16ee
16ccJJ
16eeLL
16cc
16ee
16ggJJ
!!linebreak:original
=
16ffLL
16dd
16ff
16ddJJ
16ffLL
16dd
16ff
16ggJJ
=
16cccLL
16gg
16gg
16eeJJ
8ccL
16eeL
16ggJJ
=
16ddLL
16b
16dd
16bJJ
16ddLL
16b
16dd
16ggJJ
=
16eeLL
16cc
16ee
16ccJJ
16eeLL
16cc
16ee
16ggJJ
=
16ffLL
16dd
16ff
16ddJJ
16ffLL
16dd
16b
16ddJJ
=
[4cc
8ccL]
16eeL
16ggJJ
!!linebreak:original
=||
16ddLL
16b
16dd
16bJJ
16ddLL
16b
16dd
16ggJJ
=
16eeLL
16cc
16ee
16ccJJ
16eeLL
16cc
16ee
16ggJJ
!!linebreak:original
=
16ffLL
16dd
16ff
16ddJJ
16ffLL
16dd
16ff
16ggJJ
=
16cccLL
16gg
16gg
16eeJJ
8ccL
16eeL
16ggJJ
=
16ddLL
16b
16dd
16bJJ
16ddLL
16b
16dd
16ggJJ
=
16eeLL
16cc
16ee
16ccJJ
16eeLL
16cc
16ee
16ggJJ
=
16ffLL
16dd
16ff
16ddJJ
16ffLL
16dd
16b
16ddJJ
!!linebreak:original
=
[4cc
16ccLL]
16ee
16gg
16cccJJ
==
*-
